X:2104 
T:Ta Chiarn 
C:Tom Kermode, Bradda
O:Isle of Man
Z:Clague Coll.
S:Traditional 
B:Kiaull Vannin #105 
M:4/4 
L:1/4 
Q:60 
K:G 
E/F/|G F F/E/ B|cB A/G/ A|B3 E/F/|G F F/E/ B|cB A/G/ A|B3 B| 
c B A/G/ F|F G B ^A|B3 B|d d/B/ c B|A G F/E/F|E3|| 

